X:89
T:Chippewa Breakfast
C:Traditional
N:Arranged for Mandolin by Mike Stangeland
R:bluegrass
L:1/8
Q:1/4=230
M:4/4
K:G
z6 DE |: "G"GA BG "D"Ac BA | "G"GA BG DB, DG | "G"EF GB "D"FG Ac | "G"BA GB "D"AG EF | 
"G"GA BG "D"Ac BA | "G"GA BG DB, DG | "C"EF GB "D"FG Ac |1 B"G"G AF G2 AB :|2 B"G"G AF G2 Bc | 
|: "G"dB GB dB cd | "C"e=f ed cG Bc | "G"dB de dA cB | "D"AG FE D2 Bc | "G"dB GB dB cd | 
"C"e=f ed cG Bc | "G"BA GB "D"AG FA |1 G2 GG G2 Bc :|2 G2 GG G4 | 


